polaris-icons/icons/SidekickIcon.svg

<svg xmlns="http://www.w3.org/2000/svg" viewBox="0 0 20 20"><path d="M10.9434 14.0506L10.941 14.0518C10.2106 14.4035 9.47633 14.2831 8.73675 13.9472C8.48536 13.8331 8.20461 13.8639 8.02381 14.0244C7.93145 14.1064 7.86612 14.2239 7.86156 14.3627C7.85703 14.501 7.91355 14.6308 8.00811 14.74C8.48661 15.2923 9.20559 15.6495 9.96192 15.6629C10.7894 15.6981 11.5581 15.2463 11.9891 14.5937C12.0662 14.4769 12.1065 14.3441 12.0854 14.2098C12.0641 14.0738 11.9845 13.9674 11.8827 13.9003C11.6849 13.7701 11.4101 13.7827 11.1831 13.9209C11.1021 13.9703 11.0226 14.0136 10.9434 14.0506Z"/>
<path fill-rule="evenodd" d="M2.89261 5.95139C2.8331 6.14693 2.68856 6.76759 2.68856 7.60624C2.56295 8.3348 2.61062 9.06034 2.56295 10.3179L2.50363 11.8783C2.40682 14.4248 4.25507 17.1908 6.77917 17.5409C8.71731 17.8098 10.6826 17.8194 12.6233 17.5694L12.8414 17.5413C13.0812 17.5104 13.2242 17.492 13.35 17.4692C15.6848 17.0454 17.3925 14.4672 17.4244 12.0945C17.4262 11.9667 17.4207 11.8228 17.4115 11.5814L17.3625 10.2926C17.3352 9.57088 17.3139 9.00985 17.2648 8.54209L17.2708 8.40061C17.301 7.7518 17.2938 7.65828 17.2207 7.23097C17.1238 6.66522 16.9036 6.07139 16.7151 5.71327C16.4407 5.19191 15.9964 4.65915 15.3077 4.65915L15.1211 4.46606C13.6256 2.91676 12.9287 2.57054 9.7137 2.25729C7.88931 2.19976 7.03444 2.48628 5.90963 3.0364C4.8388 3.56022 3.74818 4.282 3.35901 4.81454C3.08209 5.19349 2.98332 5.65337 2.89261 5.95139ZM12.6191 6.27356C13.3301 6.34092 13.9832 6.40281 14.5015 6.32358C14.5015 6.32358 14.7847 7.10705 15.478 7.80304C15.5573 7.88262 15.632 7.9552 15.702 8.02321C15.8555 8.1724 15.9867 8.29992 16.0936 8.43048C16.1109 8.55274 16.1253 8.68811 16.138 8.8417C15.9342 8.74419 15.6986 8.67425 15.4271 8.6409C14.3643 8.56499 13.5324 8.9771 12.6808 9.399C11.8632 9.80402 11.0274 10.2181 9.95162 10.2181C8.87583 10.2181 8.04 9.80402 7.22243 9.399C6.37079 8.9771 5.53892 8.56499 4.47612 8.6409C4.21557 8.6729 3.98802 8.7386 3.79002 8.83003C3.82463 8.41861 3.8725 8.13624 3.95453 7.88692C4.18056 7.19989 4.59313 6.6025 5.13256 6.1522C5.20427 6.12266 5.27879 6.09651 5.35587 6.07347L5.76899 6.08757C5.71859 7.40436 6.037 8.2801 6.22844 8.3348C6.38472 8.37945 6.60674 8.07901 6.90053 7.68143C7.00589 7.53886 7.12048 7.38379 7.24457 7.22767C7.39228 7.04185 7.75602 6.77219 8.24661 6.49018C8.33907 7.15836 8.52613 7.56932 8.65534 7.60624C8.81163 7.6509 9.03364 7.35046 9.32743 6.95288C9.43279 6.8103 9.54738 6.65524 9.67148 6.49912C9.76765 6.37812 9.89347 6.26627 10.0497 6.16502C10.0796 6.16537 10.1093 6.16555 10.1388 6.16555C10.4136 6.16555 10.7157 6.16784 11.0319 6.17024C11.5716 6.17433 12.1103 6.22535 12.6191 6.27356ZM3.96222 13.6997C4.47599 15.0512 5.57927 16.2135 6.93719 16.4019C8.7742 16.6567 10.637 16.6658 12.4764 16.4289L12.6745 16.4034C12.9402 16.3692 13.1446 16.3377 13.1446 16.3377C14.4144 16.1073 15.4427 14.9822 15.9437 13.6981C15.7306 13.8219 15.4813 13.9242 15.189 13.9973C14.5035 14.1687 13.559 13.9211 12.5108 13.3724C12.1469 13.1819 11.8682 12.9582 11.6074 12.7487C11.1324 12.3673 10.7163 12.0333 9.95162 12.0333C9.18692 12.0333 8.77081 12.3673 8.29582 12.7487C8.03496 12.9582 7.75631 13.1819 7.39239 13.3724C6.34422 13.9211 5.39968 14.1687 4.71419 13.9973C4.42314 13.9245 4.17476 13.8227 3.96222 13.6997ZM5.79651 12.5627C6.48374 12.5627 7.04086 12.0056 7.04086 11.3184C7.04086 10.6311 6.48374 10.074 5.79651 10.074C5.10927 10.074 4.55216 10.6311 4.55216 11.3184C4.55216 12.0056 5.10927 12.5627 5.79651 12.5627ZM12.6973 11.3184C12.6973 12.0056 13.2545 12.5627 13.9417 12.5627C14.6289 12.5627 15.186 12.0056 15.186 11.3184C15.186 10.6311 14.6289 10.074 13.9417 10.074C13.2545 10.074 12.6973 10.6311 12.6973 11.3184Z"/>
</svg>

<svg xmlns="http://www.w3.org/2000/svg" viewBox="0 0 20 20"><path d="m10.943 14.05-.002.002c-.73.351-1.465.231-2.204-.105-.252-.114-.532-.083-.713.077-.093.082-.158.2-.162.339-.005.138.052.268.146.377.479.552 1.198.91 1.954.923.827.035 1.596-.417 2.027-1.07.077-.116.117-.249.096-.383-.02-.136-.1-.243-.202-.31-.198-.13-.473-.117-.7.02-.08.05-.16.094-.24.13Z"/><path fill-rule="evenodd" d="M2.893 5.951c-.06.196-.204.817-.204 1.655-.126.729-.078 1.454-.126 2.712l-.06 1.56c-.096 2.547 1.752 5.313 4.276 5.663 1.938.269 3.904.278 5.844.028l.218-.028c.24-.03.383-.049.509-.072 2.335-.424 4.042-3.002 4.074-5.375.002-.127-.003-.271-.012-.513l-.05-1.288c-.027-.722-.048-1.283-.097-1.75l.006-.142c.03-.65.023-.743-.05-1.17-.097-.566-.317-1.16-.506-1.518-.274-.521-.719-1.054-1.407-1.054l-.187-.193c-1.495-1.55-2.192-1.895-5.407-2.209-1.825-.057-2.68.23-3.804.78-1.071.523-2.162 1.245-2.551 1.778-.277.378-.376.838-.466 1.136Zm9.726.323c.711.067 1.364.129 1.883.05 0 0 .283.783.976 1.479.08.08.154.152.224.22.153.15.285.277.392.407.017.123.031.258.044.412-.204-.098-.44-.168-.71-.201-1.064-.076-1.896.336-2.747.758-.818.405-1.654.82-2.73.82-1.075 0-1.911-.415-2.729-.82-.851-.422-1.683-.834-2.746-.758-.26.032-.488.098-.686.189.035-.411.083-.694.165-.943.226-.687.638-1.284 1.178-1.735.071-.03.146-.055.223-.079l.413.015c-.05 1.316.268 2.192.46 2.247.156.044.378-.256.672-.654.105-.142.22-.297.344-.453.147-.186.511-.456 1.002-.738.092.668.28 1.08.408 1.116.157.045.379-.256.672-.653.106-.143.22-.298.344-.454.097-.12.222-.233.379-.334h.089c.275 0 .577.003.893.005.54.004 1.078.055 1.587.104Zm-8.657 7.426c.514 1.351 1.617 2.514 2.975 2.702 1.837.255 3.7.264 5.54.027l.197-.026c.266-.034.47-.065.47-.065 1.27-.23 2.299-1.356 2.8-2.64-.213.124-.463.226-.755.3-.685.17-1.63-.077-2.678-.626-.364-.19-.643-.414-.904-.623-.475-.382-.89-.716-1.655-.716s-1.181.334-1.656.716c-.261.21-.54.433-.904.623-1.048.55-1.992.797-2.678.625-.29-.072-.54-.174-.752-.297Zm1.835-1.137c.687 0 1.244-.557 1.244-1.245 0-.687-.557-1.244-1.244-1.244-.688 0-1.245.557-1.245 1.244 0 .688.557 1.245 1.245 1.245Zm6.9-1.245c0 .688.558 1.245 1.245 1.245s1.244-.557 1.244-1.245c0-.687-.557-1.244-1.244-1.244-.688 0-1.245.557-1.245 1.244Z"/></svg>
